X: 1
T: The Spey In Spate
C: James Scott Skinner
M: 4/4
L: 1/8
Z: Nigel Gatherer; small changes by John Chambers
K: D
[| "D"D2FD A,DFA | dcBA ^GAFD | "Em" E2GE B,EGB | "A7"gecA    GECA, |
|  "D"D2FD A,DFA | dDcD  BDAf | "Em" gefd ecdB  | "A7"AFGE "D"DABc |]
[| "D"~d2fd AdFA | DFAd  fagf | "Em"~e2ge BeGB  | "A7"CEAc    egfe  |
|  "D"~d2fd AdFA | DFAd  fagf | "Em" gefd ecdB  | "A7"AFGE "D"D4   |]
